X:1
T:Title
%%score { ( 1 3 ) | 2 }
L:1/8
M:4/4
K:A
V:1 treble nm="Grand Piano"
V:3 treble 
V:2 bass 
V:1
 z4 z2[Q:1/4=100] [Ec]>[DB] | [CA]>[DB] [CA]>[DF] [FA][FA][EG][DF] | [CE]2 [A,C]2 [CE]2 A>B | %3
 c4 z4 | B6 z2 | [CA]>[DB] [CA]>[DF] [FA][FA][EG][DF] | [CE]2 [A,C]2 [CE]2 A>B | c4 z4 | A6 z2 | %9
 e6 z2 | A6 z2 | A>G A>B cBc[Bd] |[M:3/4] [ce]2 [Ac]2 [GB]2 |[M:1/4] c>B | %14
[M:4/4] [CA]>[DB] [CA]>[DF] [FA][FA][EG][DF] | [CE]2 [A,C]2 [CE]2 A>B | c4 z4 |[M:3/4] A6 |] %18
V:2
 z4 z2 [A,,A,]>[A,,A,] | [A,,A,]>[A,,A,] [A,,A,]>[A,,A,] [A,,A,][A,,A,][A,,A,][A,,A,] | %2
 [A,,A,]2 [A,,E,]2 [A,,A,]2 z2 | z2 [A,,A,]>[A,,A,] [A,,CA]2 z2 | %4
 z2 [E,E]>[E,E] [E,E]2 [A,E]>[A,D] | [A,,A,]>[A,,A,] [A,,A,]>[A,,A,] [A,,A,][A,,A,][A,,A,][A,,A,] | %6
 [A,,A,]2 [A,,E,]2 [A,,A,]2 z2 | z2 [A,,A,]>[A,,A,] [A,,CE]2 z2 | z2 A,,>A,, A,,2 z2 | %9
 z2 [A,C]>[A,C] [A,C]2 z2 | z2[K:treble] [A,C]>[A,C] [A,C]2 [A,E]>[A,DG] | %11
 [A,CE]>[A,B,E] [A,CE]>[A,DG] [A,EA][A,EG][A,EA][K:bass][A,E] |[M:3/4] [A,E]2 [A,E]2 [E,E]2 | %13
[M:1/4] [A,E]>[A,D] |[M:4/4] [A,,A,]>[A,,A,] [A,,A,]>[A,,A,] [A,,A,][A,,A,][A,,A,][A,,A,] | %15
 [A,,A,]2 [A,,E,]2 [A,,A,]2 z2 | z2 [A,,A,]>[A,,A,] [A,,CE]2 z2 |[M:3/4] z2 A,,>A,, A,,2 |] %18
V:3
 x8 | x8 | x8 | z2 E>E e2 c>c | z2 G>G G2 c>B | x8 | x8 | z2 E>E e2 c>B | z2 [CE]>[CE] [CE]2 c>d | %9
 z2 A>A A2 c>B | z2 E>E E2 c>B | x8 |[M:3/4] x6 |[M:1/4] x2 |[M:4/4] x8 | x8 | z2 E>E e2 c>B | %17
[M:3/4] z2 [CE]>[CE] [CE]2 |] %18

